SVG_Azure_All/Intune App Protection.svg

<?xml version="1.0" encoding="UTF-8" standalone="no"?>
<!-- Generated by Microsoft Visio, SVG Export Intune App Protection.svg Page-1 -->

<svg
   xmlns:dc="http://purl.org/dc/elements/1.1/"
   xmlns:cc="http://creativecommons.org/ns#"
   xmlns:rdf="http://www.w3.org/1999/02/22-rdf-syntax-ns#"
   xmlns:svg="http://www.w3.org/2000/svg"
   xmlns="http://www.w3.org/2000/svg"
   xmlns:sodipodi="http://sodipodi.sourceforge.net/DTD/sodipodi-0.dtd"
   xmlns:inkscape="http://www.inkscape.org/namespaces/inkscape"
   width="0.78744191in"
   height="0.7086767in"
   viewBox="0 0 56.695913 51.024794"
   xml:space="preserve"
   class="st7"
   version="1.1"
   id="svg65"
   sodipodi:docname="Intune App Protection.svg"
   style="font-size:12px;overflow:visible;color-interpolation-filters:sRGB;fill:none;fill-rule:evenodd;stroke-linecap:square;stroke-miterlimit:3"
   inkscape:version="0.92.5 (2060ec1f9f, 2020-04-08)"><metadata
   id="metadata69"><rdf:RDF><cc:Work
       rdf:about=""><dc:format>image/svg+xml</dc:format><dc:type
         rdf:resource="http://purl.org/dc/dcmitype/StillImage" /></cc:Work></rdf:RDF></metadata><sodipodi:namedview
   pagecolor="#ffffff"
   bordercolor="#666666"
   borderopacity="1"
   objecttolerance="10"
   gridtolerance="10"
   guidetolerance="10"
   inkscape:pageopacity="0"
   inkscape:pageshadow="2"
   inkscape:window-width="640"
   inkscape:window-height="480"
   id="namedview67"
   showgrid="false"
   inkscape:zoom="1.5281301"
   inkscape:cx="37.795532"
   inkscape:cy="31.867007"
   inkscape:window-x="0"
   inkscape:window-y="0"
   inkscape:window-maximized="0"
   inkscape:current-layer="svg65" />
	<style
   type="text/css"
   id="style2">
	<![CDATA[
		.st1 {fill:url(#grad0-6);stroke:none;stroke-linecap:butt;stroke-width:30.7888}
		.st2 {fill:#ffffff;stroke:none;stroke-linecap:butt;stroke-width:30.7888}
		.st3 {fill:url(#grad0-12);stroke:none;stroke-linecap:butt;stroke-width:30.7888}
		.st4 {fill:#32bedd;stroke:none;stroke-linecap:butt;stroke-width:30.7888}
		.st5 {fill:url(#grad0-20);stroke:none;stroke-linecap:butt;stroke-width:30.7888}
		.st6 {fill:#0078d4;stroke:none;stroke-linecap:butt;stroke-width:30.7888}
		.st7 {fill:none;fill-rule:evenodd;font-size:12px;overflow:visible;stroke-linecap:square;stroke-miterlimit:3}
	]]>
	</style>

	<defs
   id="Patterns_And_Gradients">
		<linearGradient
   id="grad0-6"
   x1="-9.0958658e-07"
   y1="101.90907"
   x2="40.877041"
   y2="101.90907"
   gradientTransform="scale(1.2327214,0.81121334)"
   gradientUnits="userSpaceOnUse">
			<stop
   offset="0"
   stop-color="#0078d4"
   stop-opacity="1"
   id="stop4" />
			<stop
   offset="0.82"
   stop-color="#5ea0ef"
   stop-opacity="1"
   id="stop6" />
		</linearGradient>
		<linearGradient
   id="grad0-12"
   x1="0"
   y1="145.44269"
   x2="17.847286"
   y2="145.44269"
   gradientTransform="scale(1.4097382,0.70935157)"
   gradientUnits="userSpaceOnUse">
			<stop
   offset="0"
   stop-color="#1490df"
   stop-opacity="1"
   id="stop9" />
			<stop
   offset="0.98"
   stop-color="#1f56a3"
   stop-opacity="1"
   id="stop11" />
		</linearGradient>
		<linearGradient
   id="grad0-20"
   x1="0"
   y1="106.85834"
   x2="9.6839473"
   y2="106.85834"
   gradientTransform="scale(1.0061641,0.99387369)"
   gradientUnits="userSpaceOnUse">
			<stop
   offset="0"
   stop-color="#d2ebff"
   stop-opacity="1"
   id="stop14" />
			<stop
   offset="1"
   stop-color="#f0fffd"
   stop-opacity="1"
   id="stop16" />
		</linearGradient>
	</defs>
	<g
   id="g63"
   transform="translate(-30.788799,-30.789499)">
		<title
   id="title20">Page-1</title>
		<g
   id="group4070-1"
   transform="translate(30.7888,-34.0157)">
			<title
   id="title22">Intune App Protection</title>
			<g
   id="group4071-2">
				<title
   id="title24">layer1</title>
				<g
   id="shape4072-3"
   transform="translate(0,-17.8648)">
					<title
   id="title26">rect21</title>
					<path
   d="m 0,114.18 a 1.66847,1.64809 -180 0 0 1.67,1.65 h 47.05 a 1.66847,1.64809 -180 0 0 1.67,-1.65 V 84.32 A 1.66847,1.64809 -180 0 0 48.72,82.67 H 1.67 A 1.66847,1.64809 -180 0 0 0,84.32 Z"
   class="st1"
   id="path28"
   inkscape:connector-curvature="0"
   style="fill:url(#grad0-6);stroke:none;stroke-width:30.78879929;stroke-linecap:butt" />
				</g>
				<g
   id="shape4073-7"
   transform="translate(2.80289,-20.6004)">
					<title
   id="title31">rect23</title>
					<path
   d="m 0,114.91 a 0.934343,0.922931 -180 0 0 0.934322,0.92291 L 43.85,115.83 a 0.934343,0.922931 -180 0 0 0.934322,-0.92291 L 44.78,89.1 A 0.934343,0.922931 -180 0 0 43.845678,88.177091 L 0.93,88.17 a 0.934343,0.922931 -180 0 0 -0.934322,0.922909 z"
   class="st2"
   id="path33"
   inkscape:connector-curvature="0"
   style="fill:#ffffff;stroke:none;stroke-width:30.78879929;stroke-linecap:butt" />
				</g>
				<g
   id="shape4074-9"
   transform="translate(12.4798,-5.04289)">
					<title
   id="title36">path25</title>
					<path
   d="m 22.82,113.06 c -5,-0.76 -5.2,-4.32 -5.17,-9.89 H 7.64 c 0,5.74 -0.2,9.3 -5.17,9.89 A 2.90307,2.86761 -180 0 0 0,115.83 h 25.16 a 2.93644,2.90057 -180 0 0 -2.34,-2.77 z"
   class="st3"
   id="path38"
   inkscape:connector-curvature="0"
   style="fill:url(#grad0-12);stroke:none;stroke-width:30.78879929;stroke-linecap:butt" />
				</g>
				<g
   id="shape4075-13"
   transform="translate(17.4059)">
					<title
   id="title41">path27</title>
					<path
   d="M 38.22,80.13 H 15.26 a 7.70815,7.614 -180 1 0 0,3.03 h 2.37 v 31.58 a 1.10116,1.08771 -180 0 0 1.1,1.09 h 19.46 a 1.10116,1.08771 -180 0 0 1.1,-1.09 V 81.22 a 1.10116,1.08771 -180 0 0 -1.07,-1.09 z"
   class="st4"
   id="path43"
   inkscape:connector-curvature="0"
   style="fill:#32bedd;stroke:none;stroke-width:30.78879929;stroke-linecap:butt" />
				</g>
				<g
   id="shape4076-15"
   transform="translate(37.1059,-4.02115)">
					<title
   id="title46">rect29</title>
					<path
   d="m 0,115.43 a 0.400433,0.395542 -180 0 0 0.400424,0.39553 L 17.18,115.83 a 0.400433,0.395542 -180 0 0 0.400424,-0.39553 L 17.59,87.55 A 0.400433,0.395542 -180 0 0 17.189576,87.154467 L 0.4,87.15 a 0.400433,0.395542 -180 0 0 -0.400424,0.395533 z"
   class="st2"
   id="path48"
   inkscape:connector-curvature="0"
   style="fill:#ffffff;stroke:none;stroke-width:30.78879929;stroke-linecap:butt" />
				</g>
				<g
   id="shape4077-17"
   transform="translate(20.3215,-29.2363)">
					<title
   id="title51">circle31</title>
					<ellipse
   cx="4.87182"
   cy="111.016"
   rx="4.87182"
   ry="4.8123102"
   class="st5"
   id="ellipse53"
   style="fill:url(#grad0-20);stroke:none;stroke-width:30.78879929;stroke-linecap:butt" />
				</g>
				<g
   id="shape4078-21"
   transform="translate(35.0374,-15.3046)">
					<title
   id="title56">path33</title>
					<path
   d="m 12.95,111.62 -3.74,-3.69 a 0.200212,0.197766 -180 0 0 -0.332949,0.16444 L 8.88,110.33 a 0.200212,0.197766 0 0 1 -0.200529,0.19808 L 0,110.53 v 2.74 h 8.68 a 0.200212,0.197766 0 0 1 0.200529,0.19808 L 8.88,115.74 a 0.200212,0.197766 -180 0 0 0.332949,0 L 12.95,112.21 a 0.400424,0.395533 -180 0 0 0,-0.59299 z"
   class="st6"
   id="path58"
   inkscape:connector-curvature="0"
   style="fill:#0078d4;stroke:none;stroke-width:30.78879929;stroke-linecap:butt" />
				</g>
			</g>
		</g>
	</g>
</svg>

<?xml version="1.0" encoding="UTF-8" standalone="no"?>
<!DOCTYPE svg PUBLIC "-//W3C//DTD SVG 1.1//EN" "http://www.w3.org/Graphics/SVG/1.1/DTD/svg11.dtd">
<!-- Generated by Microsoft Visio, SVG Export Intune App Protection.svg Page-1 -->
<svg xmlns="http://www.w3.org/2000/svg" xmlns:xlink="http://www.w3.org/1999/xlink" xmlns:ev="http://www.w3.org/2001/xml-events"
		width="1.64265in" height="1.60872in" viewBox="0 0 118.271 115.828" xml:space="preserve" color-interpolation-filters="sRGB"
		class="st7">
	<style type="text/css">
	<![CDATA[
		.st1 {fill:url(#grad0-6);stroke:none;stroke-linecap:butt;stroke-width:30.7888}
		.st2 {fill:#ffffff;stroke:none;stroke-linecap:butt;stroke-width:30.7888}
		.st3 {fill:url(#grad0-12);stroke:none;stroke-linecap:butt;stroke-width:30.7888}
		.st4 {fill:#32bedd;stroke:none;stroke-linecap:butt;stroke-width:30.7888}
		.st5 {fill:url(#grad0-20);stroke:none;stroke-linecap:butt;stroke-width:30.7888}
		.st6 {fill:#0078d4;stroke:none;stroke-linecap:butt;stroke-width:30.7888}
		.st7 {fill:none;fill-rule:evenodd;font-size:12px;overflow:visible;stroke-linecap:square;stroke-miterlimit:3}
	]]>
	</style>

	<defs id="Patterns_And_Gradients">
		<linearGradient id="grad0-6" x1="0" y1="0" x2="1" y2="0" gradientTransform="rotate(-90 0.5 0.5)">
			<stop offset="0" stop-color="#0078d4" stop-opacity="1"/>
			<stop offset="0.82" stop-color="#5ea0ef" stop-opacity="1"/>
		</linearGradient>
		<linearGradient id="grad0-12" x1="0" y1="0" x2="1" y2="0" gradientTransform="rotate(-90 0.5 0.5)">
			<stop offset="0" stop-color="#1490df" stop-opacity="1"/>
			<stop offset="0.98" stop-color="#1f56a3" stop-opacity="1"/>
		</linearGradient>
		<linearGradient id="grad0-20" x1="0" y1="0" x2="1" y2="0" gradientTransform="rotate(-90 0.5 0.5)">
			<stop offset="0" stop-color="#d2ebff" stop-opacity="1"/>
			<stop offset="1" stop-color="#f0fffd" stop-opacity="1"/>
		</linearGradient>
	</defs>
	<g>
		<title>Page-1</title>
		<g id="group3986-1" transform="translate(30.7888,-34.0157)">
			<title>Intune App Protection</title>
			<g id="group3987-2">
				<title>layer1</title>
				<g id="shape3988-3" transform="translate(0,-17.8648)">
					<title>rect21</title>
					<path d="M0 114.18 A1.66847 1.64809 -180 0 0 1.67 115.83 L48.72 115.83 A1.66847 1.64809 -180 0 0 50.39 114.18
								 L50.39 84.32 A1.66847 1.64809 -180 0 0 48.72 82.67 L1.67 82.67 A1.66847 1.64809 -180 0 0 -0 84.32
								 L0 114.18 Z" class="st1"/>
				</g>
				<g id="shape3989-7" transform="translate(2.80289,-20.6004)">
					<title>rect23</title>
					<path d="M0 114.91 a0.934343 0.922931 -180 0 0 0.934322 0.922909 L43.85 115.83 a0.934343 0.922931 -180 0 0 0.934322
								 -0.922909 L44.78 89.1 a0.934343 0.922931 -180 0 0 -0.934322 -0.922909 L0.93 88.17 a0.934343 0.922931
								 -180 0 0 -0.934322 0.922909 L0 114.91 Z" class="st2"/>
				</g>
				<g id="shape3990-9" transform="translate(12.4798,-5.04289)">
					<title>path25</title>
					<path d="M22.82 113.06 C17.82 112.3 17.62 108.74 17.65 103.17 L7.64 103.17 C7.64 108.91 7.44 112.47 2.47 113.06
								 A2.90307 2.86761 -180 0 0 -0 115.83 L25.16 115.83 A2.93644 2.90057 -180 0 0 22.82 113.06 Z"
							class="st3"/>
				</g>
				<g id="shape3991-13" transform="translate(17.4059,0)">
					<title>path27</title>
					<path d="M38.22 80.13 L15.26 80.13 A7.70815 7.614 -180 1 0 15.26 83.16 L17.63 83.16 L17.63 114.74 A1.10116 1.08771
								 -180 0 0 18.73 115.83 L38.19 115.83 A1.10116 1.08771 -180 0 0 39.29 114.74 L39.29 81.22 A1.10116
								 1.08771 -180 0 0 38.22 80.13 L38.22 80.13 Z" class="st4"/>
				</g>
				<g id="shape3992-15" transform="translate(37.1059,-4.02115)">
					<title>rect29</title>
					<path d="M0 115.43 a0.400433 0.395542 -180 0 0 0.400424 0.395533 L17.18 115.83 a0.400433 0.395542 -180 0 0 0.400424
								 -0.395533 L17.59 87.55 a0.400433 0.395542 -180 0 0 -0.400424 -0.395533 L0.4 87.15 a0.400433 0.395542
								 -180 0 0 -0.400424 0.395533 L0 115.43 Z" class="st2"/>
				</g>
				<g id="shape3993-17" transform="translate(20.3215,-29.2363)">
					<title>circle31</title>
					<ellipse cx="4.87182" cy="111.016" rx="4.87182" ry="4.81231" class="st5"/>
				</g>
				<g id="shape3994-21" transform="translate(35.0374,-15.3046)">
					<title>path33</title>
					<path d="M12.95 111.62 L9.21 107.93 a0.200212 0.197766 -180 0 0 -0.332949 0.164441 L8.88 110.33 a0.200212 0.197766
								 0 0 1 -0.200529 0.198077 L0 110.53 L0 113.27 L8.68 113.27 a0.200212 0.197766 0 0 1 0.200529 0.198077
								 L8.88 115.74 a0.200212 0.197766 -180 0 0 0.332949 0 L12.95 112.21 a0.400424 0.395533 -180 0 0 -1.77636E-14
								 -0.59299 L12.95 111.62 Z" class="st6"/>
				</g>
			</g>
		</g>
	</g>
</svg>
